X:1
T:Benson
T:Millicent D Kingham
T:(God is working his purpose out)
%%score { ( 1 2 ) | ( 3 4 ) }
L:1/8
M:4/4
K:G
V:1 treble nm="Organ"
V:2 treble 
V:3 bass 
V:4 bass 
V:1
 D2 | D2 (DD) E2 (GG) | F3 E D2 (DD) | (EE) A2 G2 (FF) | G6 (BB) | B2 (BB) A2 (GF) | %6
 G2 (FE) ^D2 (EF) | G2 (AA) B2 (^cc) | d6 (DD) | (A2 A)G F2 D2 | (B2 B)A G2 G2 | e2 (ed) c2 B2 | %12
 c6 BA | G2 GA B2 cd | e2 ed c2 BA | d2 G2 GE F2 | G6- G2 |] %17
V:2
 B,2 | B,2 (B,B,) C2 (CC) | C3 C B,2 (DD) | (DD) C2 D2 (CC) | B,6 (B,B,) | D2 (EE) E2 (^DD) | %6
 E2 (CC) B,2 ^C^D | E2 (FF) G2 (FE) | D6 (DD) | (D2 D)D D2 D2 | (D2 E)F G2 G2 | G2 (GB) A2 ^G2 | %12
 (A4 E2) FF | G2 EF G2 AA | A^GAB A2 EE | GFED C2 DC | B,6- B,2 |] %17
V:3
 G,2 | G,2 (G,G,) G,2 (G,G,) | A,3 A, B,2 (G,G,) | (G,G,) A,2 B,2 (A,A,) | G,6 (DD) | %5
 B,2 (B,B,) C2 (B,A,) | G,2 (A,G,) F,2 (B,B,) | B,2 (B,A,) G,2 (A,G,) | F,6 (F,F,) | %9
 (F,2 C)B, A,2 (G,A,) | G,2 (CC) B,2 (CD) | C2 (C=F) E3 D | C6 (DD) | D2 DC (B,D)A,A, | %14
 B,2 A,E E2 DC | B,2 CB, A,A, A,2 | G,6- G,2 |] %17
V:4
 G,,2 | G,,2 (G,,G,,) C,2 (E,E,) | D,3 F, G,2 (B,,B,,) | (C,C,) A,,2 D,2 (D,D,) | G,,6 (G,G,) | %5
 G,2 (G,G,) F,2 (B,,B,,) | E,2 (A,,A,,) B,,2 (B,,B,,) | E,2 (E,E,) E,2 (A,,A,,) | D,6 (D,D,) | %9
 (D,2 D,)D, D,2 (E,F,) | G,2 (G,G,) G,2 (A,B,) | C2 (C,D,) E,2 E,2 | A,6 (DC) | %13
 B,2 B,A, G,2 =F,F, | E,2 ^F,^G, A,2 C,C, | D,2 D,2 D,D, D,2 | G,,6- G,,2 |] %17

